X:1
T:Felix namque es - Pitoni
T:#
%%score [ 1 2 3 4 ]
L:1/8
Q:1/4=200
M:none
K:C
V:1 treble nm="Soprano" snm="S"
V:2 treble nm="Alto" snm="A"
V:3 treble-8 nm="Tenor" snm="T"
V:4 bass nm="Bass" snm="B"
V:1
"^Felix namque es""^Giuseppe Ottavio Pitoni\n(1657-1743)" F8 E8 | ^F12 ^G4 | A8 c8- | c4 B4 A8 | %4
w: Fe- lix|nam- que|es sa\-|* cra Vir-|
 A4 ^G4 (A6 B2 | c4) B4 z4 ^G4 |[M:4/2] A4 A4 =G8 | G4 ^F4 G8- | G4 G4 G4 (c4- | c2 B2 A2 G2 F8) | %10
w: go Ma- ri\- *|* a, et|o- mni lau-|de di- gnis\-|* si- ma: qui\-||
 E8 F4 D4 | E4 ^F4 G4 d4- | d4 G8 (c4- | c2 B2 A8) ^G4 | A4 c8 B4 | A4 G4 F8 | E4 c8 B4 | %17
w: a ex te|or- tus est sol|* ju- sti\-|* * * ti-|ae, Chri- stus|De- us no-|ster, Chri- stus|
 A4 G4 (^F2 G4 F2) | G8 G4 G2 A2 | B3 B B2 G2 A3 G A2 G2 | G4 G4 G2 A2 F4 | E2 c4 B2 A4 G2 A2- | %22
w: De- us no\- * *|ster. O- ra pro|po- pu- lo, in- ter- ve- ni pro|cle- ro, in- ter- ce-|de, in- ter- ce- de pro|
 A2 A2 A4 A2 A2 A3 A | G2 (F4 E2) F8 ||[M:3/1][Q:1/4=400] A12 G4 F8 | E16 E8 | F8 E8 ^F8 | G16 G8 | %28
w: * de- vo- to fe- mi- ne-|o se\- * xu:|sen- ti- ant|o- mnes|tu- um ju-|va- men,|
[M:3/1][Q:1/4=400][Q:1/4=400][Q:1/4=400][Q:1/4=400] B12 c4 A8 | G16 G8 | A8 A8 G8 | G16 G8 | %32
w: sen- ti- ant|o- mnes|tu- um ju-|va- men,|
 c8 B8 A8 | G12 G4 G8 | G8 G8 G8 | ^F12 F4 F8 | G16 G8 | A8 A8 G8 | F12 E4 D8 | D8 ^C16 || %40
w: qui- cum- que|ce- le- brant,|qui- cum- que|ce- le- brant|tu- am|san- ctam com-|me- mo- ra-|ti- o-|
[Q:1/4=200] D8 z4 (A4- | A2 G2 F2 E2 F8) | %42
w: nem. Qui\-||
[M:4/2][Q:1/4=200][Q:1/4=200][Q:1/4=200][Q:1/4=200] E8 F4 D4 | E4 ^F4 G4 d4- | d4 G8 (c4- | %45
w: a ex te|or- tus est sol|* ju- sti\-|
 c2 B2 A8) ^G4 | A4 c8 B4 | A4 G4 F8 | E4 c8 B4 | A4 G2 (G4 ^F4 EF | G2 =FE D4) E4[Q:1/4=198] c4- | %51
w: * * * ti-|ae, Chri- stus|De- us no-|ster, Chri- stus|De- us no\- * * *|* * * * ster, Chri\-|
[Q:1/4=194] c4[Q:1/4=191] A4[Q:1/4=187] A4[Q:1/4=184] G4 |[Q:1/4=176] A16 |[Q:1/4=170] ^F16 |] %54
w: * stus De- us|no-|ster.|
V:2
 D8 ^C8 | D12 D4 | C8 z4 E4- | E4 E4 E8 | F4 E2 (E4 DC D4) | E8 z4 E4 | %6
w: Fe- lix|nam- que|es sa\-|* cra Vir-|go Ma- ri\- * * *|a, et|
[M:4/2] E4 A,4 (B,2 C4 B,2) | C4 A,4 (E8 | D6) D2 E8 | (C8 D8) | ^C8 D4 F4 | E4 D4 D8- | %12
w: o- mni lau\- * *|de di- gnis\-|* si- ma:|qui\- *|a ex te|or- tus est|
 D8 (E6 D2 | C4) D4 E6 E2 | E4 E8 E4 | A,4 C2 (C4 B,A, B,4) | C4 G8 F4 | F4 D4 D8 | D8 D4 E2 ^F2 | %19
w: * sol *|* ju- sti- ti-|ae, Chri- stus|De- us no\- * * *|ster, Chri- stus|De- us no-|ster. O- ra pro|
 G3 G G2 D2 F3 G F2 D2 | E4 E4 E2 E2 D4 | C2 C4 G2 F4 E2 F2- | F2 F2 E4 F2 F2 F3 F | D4 C4 C8 || %24
w: po- pu- lo, in- ter- ve- ni pro|cle- ro, in- ter- ce-|de, in- ter- ce- de pro|* de- vo- to fe- mi- ne-|o se- xu:|
[M:3/1] F12 E4 D8 | ^C16 C8 | D8 E8 D8 | D16 D8 |[M:3/1] G12 G4 F8 | E16 E8 | F8 F8 D8 | E16 E8 | %32
w: sen- ti- ant|o- mnes|tu- um ju-|va- men,|sen- ti- ant|o- mnes|tu- um ju-|va- men,|
 G8 G8 F8 | D12 D4 D8 | D8 B,8 E8 | D12 D4 D8 | D16 E8 | F8 F8 E8 | D12 C4 _B,8 | _B,8 A,16 || %40
w: qui- cum- que|ce- le- brant,|qui- cum- que|ce- le- brant|tu- am|san- ctam com-|me- mo- ra-|ti- o-|
 A,4 (F6 E2 D2 C2 | D16) |[M:4/2] ^C8 D4 F4 | E4 D4 D8- | D8 (E6 D2 | C4) D4 E6 E2 | E4 E8 E4 | %47
w: nem. Qui\- * * *||a ex te|or- tus est|* sol *|* ju- sti- ti-|ae, Chri- stus|
 A,4 C2 (C4 B,A, B,4) | C4 G8 F4 | F4 D4 D8 | D4 (G6 F2 E2 D2 | E4) D4 ^C4 D4- | D4 (^C2 B,2 C8) | %53
w: De- us no\- * * *|ster, Chri- stus|De- us no-|ster, Chri\- * * *|* stus De- us|* no\- * *|
 D16 |] %54
w: ster.|
V:3
 A8 A8 | A12 D4 | E4 (e6 d2 c2 B2 | A4) B4 ^c8 | d4 B4 A8- | A4 ^G4 z4 B4 | %6
w: Fe- lix|nam- que|es sa\- * * *|* cra Vir-|go Ma- ri\-|* a, et|
[M:4/2][K:treble-8] ^c4 d4 d8 | e4 d8 =c4- | c4 B4 c4 G4 | A16- | A8 A6 A2 | A4 A4 B8- | B8 c4 G4 | %13
w: o- mni lau-|de di- gnis\-|* si- ma: qui-|a|* ex te|or- tus est|* sol- ju-|
 (A6 B2 c4) B4 | (A6 GF E8) | z16 | z4 e8 d4 | c4 B4 A8 | G8 G4 c2 A2 | G3 G G2 B2 c3 c c2 B2 | %20
w: sti\- * * ti-|ae, * * *||Chri- stus|De- us no-|ster. O- ra pro|po- pu- lo, in- ter- ve- ni pro|
 c4 c4 c2 c2 A4 | A2 e4 e2 c4 c2 c2- | c2 d2 ^c4 d2 d2 =c3 c | _B4 G4 F8 ||[M:3/1] c12 c4 A8 | %25
w: cle- ro, in- ter- ce-|de, in- ter- ce- de pro|* de- vo- to fe- mi- ne-|o se- xu:|sen- ti- ant|
 A16 A8 | A8 A8 A8 | B16 B8 |[M:3/1][K:treble-8] d12 e4 c8 | c16 c8 | c8 d8 B8 | c16 c8 | %32
w: o- mnes|tu- um ju-|va- men,|sen- ti- ant|o- mnes|tu- um ju-|va- men,|
 e8 e8 c8 | B12 B4 B8 | B8 d8 c8 | A12 A4 A8 | B16 c8 | c8 c8 c8 | A12 A4 F8 | G8 E16 || %40
w: qui- cum- que|ce- le- brant,|qui- cum- que|ce- le- brant|tu- am|san- ctam com-|me- mo- ra-|ti- o-|
 D4 (A6 G2 F2 E2 | F6 G2 A8) |[M:4/2][K:treble-8] A8 A6 A2 | A4 A4 B8- | B8 c4 G4 | (A6 B2 c4) B4 | %46
w: nem. Qui\- * * *||a ex te|or- tus est|* sol ju-|sti\- * * ti-|
 (A6 GF E8) | z16 | z4 e8 d4 | c4 B4 (A8 | B8) c4 G4- | G4 F4 E4 D4 | E16 | D16 |] %54
w: ae, * * *||Chri- stus|De- us no\-|* ster, Chri\-|* stus De- us|no-|ster.|
V:4
 D,8 A,,8 | D,12 B,,4 | A,,8 A,8- | A,4 ^G,4 A,8 | D,4 E,4 F,8 | E,8 z4 E,4 |[M:4/2] A,4 ^F,4 G,8 | %7
w: Fe- lix|nam- que|es sa\-|* cra Vir-|go Ma- ri-|a, et|o- mni lau-|
 C,4 D,4 (E,6 F,2 | G,4) G,4 C,8 | (F,6 E,2 D,8) | A,,8 D,6 D,2 | ^C,4 D,4 G,,8 | G,8 C,8 | %13
w: de di- gnis\- *|* si- ma:|qui\- * *|a ex te|or- tus est|sol ju-|
 (F,8 E,6) E,2 | A,,4 A,8 G,4 | F,4 E,4 D,8 | C,4 C,8 D,4 | F,4 G,4 D,8 | G,,8 z8 | %19
w: sti\- * ti-|ae, Chri- stus|De- us no-|ster, Chri- stus|De- us no-|ster.|
 z4 z2 G,2 F,3 E, F,2 G,2 | C,4 C,4 C,2 A,,2 D,4 | A,,4 A,2 E,2 F,4 C,2 F,2- | %22
w: in- ter- ve- ni pro|cle- ro, in- ter- ce-|de, in- ter- ce- de pro|
 F,2 D,2 A,4 D,2 D,2 F,3 F, | _B,,4 C,4 F,,8 ||[M:3/1] F,12 C,4 D,8 | A,,16 A,,8 | D,8 ^C,8 D,8 | %27
w: * de- vo- to fe- mi- ne-|o se- xu:|sen- ti- ant|o- mnes|tu- um ju|
 G,,16 G,,8 |[M:3/1] G,12 E,4 F,8 | C,16 C,8 | F,8 D,8 G,8 | C,16 C,8 | C,8 E,8 F,8 | %33
w: va- men,|sen- ti- ant|o- mnes|tu- um ju-|va- men,|qui- cum- que|
 G,12 G,4 G,8 | G,,8 B,,8 C,8 | D,12 D,4 D,8 | G,16 C,8 | F,8 F,8 C,8 | D,12 A,,4 _B,,8 | %39
w: ce- le- brant,|qui- cum- que|ce- le- brant|tu- am|san- ctam com-|me- mo- ra-|
 G,,8 A,,16 || D,8 D,8- | D,16 |[M:4/2] A,,8 D,6 D,2 | ^C,4 D,4 G,,8 | G,8 C,8 | (F,8 E,6) E,2 | %46
w: ti- o-|nem. Qui\-||a ex te|or- tus est|sol ju-|sti\- * ti-|
 A,,4 A,8 G,4 | F,4 E,4 D,8 | C,4 C,8 D,4 | F,4 G,4 D,8 | G,,8 C,8- | C,4 D,4 A,,4 _B,,4 | A,,16 | %53
w: ae, Chri- stus|De- us no-|ster, Chri- stus|De- us no-|ster, Chri\-|* stus De- us|no-|
 D,16 |] %54
w: ster.|

